X:222
T:Le ruisseau francais
C:André Brunet
Z:robin.beech@mcgill.ca
M:4/4
L:1/8
K:D
de | f2d2e2d | cdec A2Bc | d2B2G2d2 | cdec A2de |
f2a2e3d | cdec A2dc | B3d cdeg |1 fdec d2 :|2 fdec d2 |:
(3DEF | GFGA B2Bd | cABc d2ef | g2e2 efed | cdec A2ag |
fgaf g2gf | efge afdc | Bged cage | fdecd2 :|
